public/library/velora-icon-dark.svg

<svg width="64" height="64" viewBox="0 0 64 64" fill="none" xmlns="http://www.w3.org/2000/svg">
<circle cx="32" cy="32" r="32" fill="url(#paint0_linear_4897_3669)"/>
<path fill-rule="evenodd" clip-rule="evenodd" d="M15.8331 24.9178C15.8331 24.9178 11.1271 17.3725 16.3813 14.7383C19.7147 13.2865 23.0909 14.328 24.8468 15.2274C25.0445 15.3167 25.2182 15.3974 25.3741 15.4698C26.5506 16.0165 26.7045 16.088 28.346 15.7448C32.4059 14.8263 36.6045 15.3039 39.6236 16.5566C43.4139 12.9451 51.9198 12.7755 47.4438 21.9632C47.4438 21.9632 48.2844 22.9036 48.8128 23.6702C48.9539 23.9832 48.761 24.2677 48.5516 24.5766C48.3113 24.931 48.0491 25.3176 48.2438 25.8166C48.5343 26.5617 48.9915 27.291 49.5169 28.1288C50.1788 29.1845 50.9488 30.4126 51.6294 32.0616C52.8501 35.0192 51.1319 39.5942 49.4819 42.2494C46.6557 46.5956 41.9754 44.8645 38.1359 42.9913C37.5933 42.7266 36.9365 42.9686 36.7084 43.5243L34.6643 48.5028C34.3401 49.2924 33.5027 49.7542 32.6765 49.5199C26.8566 47.8692 16.9645 42.0455 11.8601 29.5836C11.4843 28.666 11.9787 27.6299 12.8627 27.1702C13.8448 26.6595 15.0492 25.8953 15.8331 24.9178ZM48.9607 21.7548C49.2398 22.0905 49.5933 22.5325 49.8789 22.9466L49.9444 23.0418L49.9918 23.147C50.2572 23.736 50.1491 24.2809 49.9913 24.6539C49.8779 24.9215 49.6994 25.1816 49.6107 25.3107C49.5986 25.3285 49.5882 25.3437 49.5798 25.3561C49.5445 25.4087 49.5186 25.45 49.4998 25.4812C49.7453 26.0644 50.1162 26.6569 50.6188 27.4599C50.6847 27.5651 50.7529 27.6741 50.8233 27.7871C51.4466 28.7866 52.1735 29.9981 52.8246 31.5759C53.5913 33.4336 53.3923 35.6431 52.8821 37.5913C52.3628 39.5747 51.4653 41.4995 50.5811 42.9221L50.5742 42.9333L50.567 42.9443C49.7464 44.2062 48.7487 45.0872 47.6078 45.6214C46.4732 46.1526 45.2767 46.3039 44.1087 46.2318C41.9166 46.0964 39.6787 45.1604 37.8025 44.2561L35.8604 48.9864C35.3166 50.311 33.8529 51.1865 32.3216 50.7522C26.1764 49.0092 15.9384 42.9438 10.6637 30.0662C9.99025 28.4221 10.9081 26.7398 12.2632 26.035C12.9436 25.6812 13.6668 25.2319 14.2468 24.7169C14.1736 24.575 14.0952 24.4183 14.0138 24.2486C13.6311 23.451 13.1671 22.3346 12.879 21.1064C12.5939 19.8911 12.4568 18.465 12.8334 17.1014C13.2254 15.6824 14.1521 14.42 15.7989 13.5944L15.8302 13.5787L15.8622 13.5647C19.6865 11.8991 23.4818 13.0934 25.4102 14.0737C25.6299 14.1732 25.7976 14.2512 25.9412 14.3181C26.0992 14.3917 26.2282 14.4518 26.3658 14.5121C26.5976 14.6135 26.7039 14.6454 26.7775 14.6595C26.9139 14.6857 27.1147 14.6922 28.0696 14.4929C32.0601 13.5923 36.1818 13.9513 39.3641 15.0829C40.3569 14.3024 41.5244 13.7137 42.6983 13.3595C44.1178 12.9314 45.6805 12.8076 47.0308 13.2407C48.4613 13.6996 49.5922 14.778 49.9132 16.5015C50.1806 17.937 49.862 19.6901 48.9607 21.7548Z" fill="white"/>
<path d="M41.0051 17.0649C41.8132 16.3421 44.4069 15.0369 46.3797 15.7261C43.8718 15.8429 43.2434 18.2691 41.0051 17.0649Z" fill="white"/>
<path d="M15.9523 29.9659C15.5582 28.6358 14.5649 27.2834 12.8975 28.632C16.3037 37.4679 22.3378 42.1784 22.3378 42.1784C19.1249 38.8325 17.032 33.1451 15.9523 29.9659Z" fill="white"/>
<path d="M30.052 36.0375C31.7143 37.4852 34.839 37.5819 39.543 37.3955C37.4042 38.5781 33.9182 38.5391 33.9182 38.5391C35.4928 39.597 38.726 40.8289 42.0568 41.0047C45.3876 41.1805 47.8325 40.3014 47.8275 37.3154C47.8275 34.2004 42.3693 30.74 30.052 36.0375Z" fill="white"/>
<path d="M50.8435 34.125C50.1784 34.5866 49.4257 35.7602 49.1953 37.2002C48.1953 43.0613 51.3186 37.2631 50.8435 34.125Z" fill="white"/>
<path d="M38.7119 41.6011C41.2978 42.9644 46.4521 45.2772 48.4986 41.3985L48.3451 41.2404C48.2673 41.1601 48.1465 41.1392 48.0444 41.1861C45.8503 42.1941 42.5364 42.5427 38.7119 41.6011Z" fill="white"/>
<path d="M40.7127 26.2971C41.3187 27.957 42.0738 29.8733 42.738 31.1101C43.1083 31.7995 43.8237 32.1938 44.6058 32.2835C48.0014 32.6732 49.0659 32.3603 49.7349 32.0576C50.037 31.921 50.201 31.5827 50.0162 31.309C50.0162 31.309 47.3819 26.9563 46.0794 25.2594C45.3652 24.2225 44.5177 23.1505 46.7979 23.191C40.4782 16.7021 34.6912 15.6618 27.9644 17.126C26.6563 17.3811 25.9422 17.194 24.5884 16.5195C23.1433 15.794 21.0868 14.972 18.4307 15.4368C20.3206 16.6618 21.8868 18.5879 22.9815 20.2684C24.3555 22.3774 26.6851 23.9265 29.2088 23.7402L35.8042 23.2535C37.8622 23.1016 40.0097 24.3717 40.7127 26.2971Z" fill="white"/>
<path d="M31.7897 24.843L26.7888 25.1413C17.1523 25.8525 21.9765 36.5535 33.7236 33.3562C40.0901 31.6234 41.1109 30.4757 39.7618 27.392C39.5555 27.0233 39.1443 26.8139 38.7195 26.8302C35.5736 26.9506 33.7908 26.1965 33.1016 25.4962C32.7499 25.1387 32.2923 24.813 31.7897 24.843Z" fill="white"/>
<defs>
<linearGradient id="paint0_linear_4897_3669" x1="32" y1="0" x2="32" y2="64" gradientUnits="userSpaceOnUse">
<stop stop-color="#FF9803"/>
<stop offset="1" stop-color="#FF6D3A"/>
</linearGradient>
</defs>
</svg>

<svg xmlns="http://www.w3.org/2000/svg" width="64" height="64" fill="none" viewBox="0 0 64 64"><circle cx="32" cy="32" r="32" fill="url(#a)"/><path fill="#fff" fill-rule="evenodd" d="M15.833 24.918s-4.706-7.546.548-10.18c3.334-1.451 6.71-.41 8.466.49q.294.134.527.242c1.177.547 1.33.618 2.972.275 4.06-.919 8.259-.441 11.278.812 3.79-3.612 12.296-3.781 7.82 5.406 0 0 .84.94 1.369 1.707.14.313-.052.598-.261.907-.24.354-.503.74-.308 1.24.29.745.748 1.474 1.273 2.312.662 1.055 1.432 2.284 2.112 3.933 1.221 2.957-.497 7.532-2.147 10.187-2.826 4.347-7.507 2.615-11.346.742a1.046 1.046 0 0 0-1.428.533l-2.044 4.979c-.324.79-1.161 1.251-1.988 1.017-5.82-1.65-15.711-7.475-20.816-19.936-.376-.918.119-1.954 1.003-2.414.982-.51 2.186-1.275 2.97-2.252m33.128-3.163c.279.335.632.777.918 1.192l.065.095.048.105c.265.589.157 1.134 0 1.507a4 4 0 0 1-.381.657l-.031.045-.08.125c.245.583.616 1.176 1.119 1.979l.204.327c.624 1 1.35 2.211 2.002 3.789.766 1.858.567 4.067.057 6.015-.52 1.984-1.417 3.908-2.3 5.331l-.008.011-.007.011c-.82 1.262-1.818 2.143-2.96 2.677-1.134.532-2.33.683-3.498.61-2.192-.135-4.43-1.07-6.306-1.975l-1.943 4.73c-.543 1.325-2.007 2.2-3.538 1.766-6.146-1.743-16.384-7.808-21.658-20.686-.674-1.644.244-3.326 1.6-4.031.68-.354 1.403-.803 1.983-1.318a18 18 0 0 1-.233-.468c-.383-.798-.847-1.914-1.135-3.143-.285-1.215-.422-2.641-.046-4.005.392-1.419 1.32-2.681 2.966-3.507l.031-.015.032-.014c3.824-1.666 7.62-.472 9.548.509.22.1.388.177.531.244.158.074.287.134.425.194.232.101.338.133.412.147.136.027.337.033 1.292-.166 3.99-.9 8.112-.542 11.294.59.993-.78 2.16-1.37 3.334-1.723 1.42-.429 2.983-.552 4.333-.12 1.43.46 2.561 1.538 2.882 3.262q.4 2.154-.952 5.253" clip-rule="evenodd"/><path fill="#fff" d="M41.005 17.065c.808-.723 3.402-2.028 5.375-1.339-2.508.117-3.137 2.543-5.375 1.339M15.952 29.966c-.394-1.33-1.387-2.683-3.054-1.334 3.406 8.836 9.44 13.546 9.44 13.546-3.213-3.345-5.306-9.033-6.386-12.212M30.052 36.038c1.662 1.447 4.787 1.544 9.491 1.358-2.139 1.182-5.625 1.143-5.625 1.143 1.575 1.058 4.808 2.29 8.139 2.466 3.33.175 5.776-.704 5.77-3.69 0-3.115-5.458-6.575-17.775-1.277M50.844 34.125c-.666.462-1.418 1.635-1.649 3.075-1 5.861 2.124.063 1.648-3.075M38.712 41.601c2.586 1.363 7.74 3.676 9.787-.203l-.154-.158a.265.265 0 0 0-.3-.054c-2.195 1.008-5.509 1.357-9.333.415M40.713 26.297c.606 1.66 1.36 3.576 2.025 4.813.37.69 1.086 1.084 1.868 1.173 3.395.39 4.46.077 5.129-.225.302-.137.466-.475.281-.749 0 0-2.634-4.353-3.937-6.05-.714-1.037-1.561-2.108.719-2.068-6.32-6.489-12.107-7.53-18.834-6.065-1.308.255-2.022.068-3.376-.607-1.445-.725-3.501-1.547-6.157-1.082 1.89 1.225 3.456 3.15 4.55 4.831 1.374 2.11 3.704 3.659 6.228 3.472l6.595-.486c2.058-.152 4.206 1.118 4.909 3.043"/><path fill="#fff" d="m31.79 24.843-5.001.298c-9.637.712-4.812 11.413 6.935 8.215 6.366-1.733 7.387-2.88 6.038-5.964a1.14 1.14 0 0 0-1.043-.562c-3.145.12-4.928-.633-5.617-1.334-.352-.357-.81-.683-1.312-.653"/><defs><linearGradient id="a" x1="32" x2="32" y1="0" y2="64" gradientUnits="userSpaceOnUse"><stop stop-color="#ff9803"/><stop offset="1" stop-color="#ff6d3a"/></linearGradient></defs></svg>
